dist/assets/images/main/aboutUsArrow.svg

<svg width="41" height="40" viewBox="0 0 41 40" fill="none" xmlns="http://www.w3.org/2000/svg">
<g clip-path="url(#clip0_537_3911)">
<path fill-rule="evenodd" clip-rule="evenodd" d="M1.5 20.5378L36.4261 20.5378C34.7634 19.918 33.214 19.2086 31.7943 18.4645C28.2047 16.7586 24.3732 14.4942 21.6665 11.7844C21.282 11.4391 20.9837 10.8333 21.3723 10.3239C21.5632 10.0737 21.8703 9.96096 22.1727 10.012C22.4641 10.0613 22.6897 10.246 22.8415 10.4621C22.8415 10.4621 22.8453 10.4674 22.8548 10.4791C22.8652 10.4918 22.8794 10.5088 22.8982 10.5304C22.9359 10.5735 22.9873 10.6299 23.053 10.699C23.1842 10.8371 23.366 11.0193 23.5967 11.2384C24.0578 11.6764 24.7081 12.2557 25.5296 12.917C27.171 14.2384 29.4883 15.8809 32.3376 17.3765C35.2862 18.7762 38.0964 19.8051 40.0004 20.3898C40.3267 20.49 40.5365 20.8084 40.4947 21.146C40.5365 21.4836 40.3267 21.802 40.0004 21.9022C38.0964 22.4869 35.2862 23.5158 32.3376 24.9155C29.4883 26.4111 27.171 28.0536 25.5296 29.375C24.7081 30.0363 24.0578 30.6156 23.5967 31.0536C23.366 31.2727 23.1842 31.4549 23.053 31.593C22.9873 31.6621 22.9359 31.7184 22.8982 31.7616C22.8794 31.7832 22.8652 31.8002 22.8548 31.8129C22.8516 31.8169 22.849 31.8201 22.847 31.8227C22.8431 31.8276 22.8415 31.8299 22.8415 31.8299C22.6897 32.046 22.4641 32.2307 22.1727 32.2799C21.8703 32.331 21.5632 32.2183 21.3723 31.9681C20.9837 31.4587 21.282 30.8529 21.6665 30.5076C24.3732 27.7978 28.2047 25.5334 31.7943 23.8275C33.214 23.0834 34.7634 22.374 36.4261 21.7542L2.10796 21.7542C2.10001 21.7542 2.09211 21.754 2.08424 21.7537L1.5 21.7537L1.5 21.1462L1.5 20.5378Z" fill="#4F4A45"/>
</g>
<defs>
<clipPath id="clip0_537_3911">
<rect width="40" height="40" fill="white" transform="matrix(4.37114e-08 1 1 -4.37114e-08 0.5 0)"/>
</clipPath>
</defs>
</svg>

<svg width="41" height="40" fill="none" xmlns="http://www.w3.org/2000/svg"><g clip-path="url(#clip0_537_3911)"><path fill-rule="evenodd" clip-rule="evenodd" d="M1.5 20.538h34.926a40.366 40.366 0 01-4.632-2.073c-3.59-1.706-7.42-3.97-10.128-6.68-.384-.346-.682-.952-.294-1.461a.826.826 0 01.8-.312c.292.05.518.234.67.45l.013.017.043.051c.038.043.09.1.155.169.131.138.313.32.544.54a31.79 31.79 0 001.933 1.678 42.43 42.43 0 006.808 4.46c2.948 1.4 5.758 2.428 7.662 3.013.327.1.536.418.495.756a.703.703 0 01-.495.756c-1.904.585-4.714 1.614-7.662 3.014a42.43 42.43 0 00-6.808 4.459 31.79 31.79 0 00-1.933 1.679 14.2 14.2 0 00-.544.539 5.531 5.531 0 00-.198.22l-.008.01-.006.007c-.151.216-.377.4-.668.45a.826.826 0 01-.8-.312c-.39-.51-.091-1.115.293-1.46 2.707-2.71 6.539-4.975 10.128-6.68a40.366 40.366 0 014.632-2.074H1.5v-1.216z" fill="#4F4A45"/></g><defs><clipPath id="clip0_537_3911"><path fill="#fff" transform="matrix(0 1 1 0 .5 0)" d="M0 0h40v40H0z"/></clipPath></defs></svg>
